iqiyi.svg

<svg viewBox="0 0 24 24" xmlns="http://www.w3.org/2000/svg"><path d="M11.9212 15.6467C11.9212 15.6808 11.9513 15.7085 11.9885 15.7085L13.5898 15.7085C13.6268 15.7085 13.6569 15.6808 13.6569 15.6467L13.6569 8.49172C13.6569 8.45768 13.6268 8.42992 13.5898 8.42992L11.9885 8.42992C11.9513 8.42992 11.9212 8.45768 11.9212 8.49172L11.9212 15.6467ZM0.149011 15.6467C0.149011 15.6808 0.179074 15.7085 0.216285 15.7085L1.81761 15.7085C1.85461 15.7085 1.88468 15.6808 1.88468 15.6467L1.88468 11.1423C1.88468 11.1083 1.85461 11.0807 1.81761 11.0807L0.216285 11.0807C0.179074 11.0807 0.149011 11.1083 0.149011 11.1423L0.149011 15.6467ZM7.14 14.1402C5.97993 14.3494 4.86215 13.5596 4.64811 12.3795C4.43411 11.1993 5.20377 10.0689 6.36381 9.85972C7.52367 9.65055 8.64145 10.4404 8.85549 11.6204C9.06949 12.8006 8.30004 13.931 7.14 14.1402M10.8644 14.4789L10.0723 13.8447C10.0559 13.8316 10.0454 13.8138 10.0412 13.7944C10.0372 13.7751 10.0395 13.7545 10.0494 13.736C10.4282 13.026 10.5796 12.1893 10.425 11.3374C10.059 9.31965 8.11799 7.98089 6.08945 8.34667C4.06074 8.71271 2.71295 10.6449 3.07875 12.6625C3.44455 14.6803 5.38582 16.0193 7.41436 15.6533C7.97838 15.5515 8.48945 15.3285 8.9261 15.0165C8.95827 14.9933 9.0018 14.994 9.0327 15.0188L9.88247 15.6991C9.91125 15.7222 9.95393 15.717 9.97767 15.6873L10.8735 14.5742C10.8975 14.5445 10.8932 14.5018 10.8644 14.4789M23.9327 8.42992L22.3314 8.42992C22.2944 8.42992 22.2641 8.45768 22.2641 8.49172L22.2641 15.6467C22.2641 15.6808 22.2944 15.7085 22.3314 15.7085L23.9327 15.7085C23.9699 15.7085 24 15.6808 24 15.6467L24 8.49172C24 8.45768 23.9699 8.42992 23.9327 8.42992M1.01689 8.28727C0.455362 8.28727 0 8.74135 0 9.30142C0 9.86145 0.455362 10.3156 1.01689 10.3156C1.57841 10.3156 2.03377 9.86145 2.03377 9.30142C2.03377 8.74135 1.57841 8.28727 1.01689 8.28727M21.4165 8.42992L19.7103 8.42992C19.6808 8.42992 19.6537 8.44484 19.6399 8.46861L18.0545 11.2804C18.0545 11.2804 18.0431 11.301 18.0274 11.3015C18.0116 11.301 18.0002 11.2804 18.0002 11.2804L16.4147 8.46861C16.4008 8.44484 16.3739 8.42992 16.3445 8.42992L14.6382 8.42992C14.5926 8.42992 14.5401 8.4768 14.5777 8.54681L17.1137 12.8027C17.1379 12.8437 17.1507 12.8906 17.1507 12.9383L17.1507 15.6343C17.1507 15.6753 17.1839 15.7085 17.2249 15.7085L18.0274 15.7085L18.8296 15.7085C18.8708 15.7085 18.9041 15.6753 18.9041 15.6343L18.9041 12.9383C18.9041 12.8906 18.9169 12.8437 18.9411 12.8027L21.4771 8.54681C21.5145 8.4768 21.4621 8.42992 21.4165 8.42992" fill="#00dc5a"/></svg>

<svg viewBox="0 0 24 24" xmlns="http://www.w3.org/2000/svg"><path d="M11.921 15.647c0 .034.03.062.068.062h1.6c.038 0 .068-.028.068-.062V8.492c0-.034-.03-.062-.067-.062h-1.601c-.038 0-.068.028-.068.062v7.155Zm-11.772 0c0 .034.03.062.067.062h1.602c.037 0 .067-.028.067-.062v-4.505c0-.034-.03-.061-.067-.061H.216c-.037 0-.067.027-.067.061v4.505ZM7.14 14.14c-1.16.21-2.278-.58-2.492-1.76-.214-1.18.556-2.311 1.716-2.52 1.16-.21 2.277.58 2.491 1.76.214 1.18-.555 2.311-1.715 2.52m3.724.339-.792-.634a.088.088 0 0 1-.023-.109c.38-.71.53-1.547.376-2.399-.366-2.017-2.307-3.356-4.336-2.99-2.028.366-3.376 2.298-3.01 4.316.366 2.017 2.307 3.356 4.335 2.99a3.733 3.733 0 0 0 1.512-.636.088.088 0 0 1 .107.002l.85.68a.068.068 0 0 0 .095-.012l.896-1.113a.067.067 0 0 0-.01-.095m13.069-6.05H22.33c-.037 0-.067.029-.067.063v7.155c0 .034.03.062.067.062h1.602c.037 0 .067-.028.067-.062V8.492c0-.034-.03-.062-.067-.062M1.017 8.287C.455 8.287 0 8.741 0 9.301s.455 1.015 1.017 1.015a1.016 1.016 0 1 0 0-2.028m20.4.142H19.71a.081.081 0 0 0-.07.039l-1.585 2.811s-.012.021-.028.022C18.012 11.3 18 11.28 18 11.28L16.415 8.47a.081.081 0 0 0-.07-.04h-1.707c-.045 0-.098.048-.06.118l2.536 4.256a.267.267 0 0 1 .037.135v2.696c0 .041.033.075.074.075h1.605a.074.074 0 0 0 .074-.075v-2.696c0-.047.013-.094.037-.135l2.536-4.256c.038-.07-.015-.117-.06-.117" fill="#00dc5a"/></svg>
